X:1
T:Denis Murphy's Slide
M:12/8
L:1/8
R:slide
K:Dmaj
|: B | A2D FED F2A A2f | gfe fed e2d B2d | A2D FED F2A A2f | a2f efe d3 d2 :|
|: A | d2e f3 gfe f3 | gfe fed e2d B2A | d2e f3 gfe f2g | a2f efe d3 d2 :|
